src/sources/forus-webshop/resources/webshop-general/assets/img/logo-normal.svg

<svg xmlns="http://www.w3.org/2000/svg" xmlns:xlink="http://www.w3.org/1999/xlink" width="130" height="40" version="1.1" viewBox="0 0 130 25"><title>08CEB99D-1C99-40C7-81F1-4D615454C512</title><desc>Created with sketchtool.</desc><g id="Page-1" fill="none" fill-rule="evenodd" stroke="none" stroke-width="1"><g id="Home-v3.4" fill="#000" transform="translate(-261.000000, -33.000000)"><g id="HEADER" transform="translate(0.000000, -1.000000)"><g id="forus-logo" transform="translate(261.000000, 34.000000)"><g id="Symbol_9_" transform="translate(23.636364, 0.000000)"><path id="Shape" d="M14.6172249,0.0654415761 C6.58458168,0.0654415761 0.081965747,6.32165625 0.081965747,14.0306739 C0.081965747,17.9048152 1.72128069,21.3993954 4.35784555,23.9254402 C4.52177704,24.0825 4.82231811,24.0432351 4.93160578,23.8469103 C6.17475294,21.7004266 8.34684524,20.012034 10.9970711,19.2005584 C9.26212941,18.0880516 8.12826991,16.1771576 8.12826991,14.0306739 C8.12826991,10.588447 11.0380539,7.80063587 14.6172249,7.80063587 C18.1963958,7.80063587 21.1061799,10.588447 21.1061799,14.0306739 C21.1061799,16.1902459 19.9723204,18.0880516 18.2373787,19.2005584 C20.8876045,20.0251223 23.0596968,21.7004266 24.302844,23.8469103 C24.4121316,24.0432351 24.7126727,24.0825 24.8766042,23.9254402 C27.52683,21.3993954 29.152484,17.8917269 29.152484,14.0306739 C29.152484,6.32165625 22.6362071,0.0654415761 14.6172249,0.0654415761 Z"/></g><g id="Forus_9_" fill-rule="nonzero"><path id="Shape" d="M7.08229167,5.57741935 L7.08229167,9.41521505 L19.4729167,9.41521505 C19.6760417,9.41521505 19.8520833,9.57456989 19.8520833,9.78704301 L19.8520833,14.5809677 C19.8520833,14.7801613 19.6895833,14.9527957 19.4729167,14.9527957 L7.08229167,14.9527957 L7.08229167,24.6601613 L0.379166667,24.6601613 C0.176041667,24.6601613 0,24.5008065 0,24.2883333 L0,22.9603763 L0,1.51387097 L0,0.411666667 C0,0.212473118 0.1625,0.0398387097 0.379166667,0.0398387097 L19.7708333,0.0398387097 C19.9739583,0.0398387097 20.15,0.199193548 20.15,0.411666667 L20.15,5.2055914 C20.15,5.40478495 19.9875,5.57741935 19.7708333,5.57741935 L7.08229167,5.57741935 L7.08229167,5.57741935 Z M72.2989583,15.6167742 L77.10625,24.1156989 C77.2416667,24.3547312 77.065625,24.6601613 76.78125,24.6601613 L70.240625,24.6601613 C70.1052083,24.6601613 69.9697917,24.5804839 69.915625,24.4609677 L65.8125,16.4002688 L62.5083333,16.4002688 L62.5083333,24.3016129 C62.5083333,24.5008065 62.3458333,24.6601613 62.1427083,24.6601613 L56.428125,24.6601613 C56.225,24.6601613 56.0625,24.5008065 56.0625,24.3016129 L56.0625,0.0398387097 L68.615625,0.0398387097 C74.18125,0.0398387097 77.3364583,3.65188172 77.3364583,8.23333333 C77.2958333,12.5093548 74.628125,14.8067204 72.2989583,15.6167742 L72.2989583,15.6167742 Z M67.6,5.57741935 L62.846875,5.57741935 C62.64375,5.57741935 62.4947917,5.73677419 62.4947917,5.92268817 L62.4947917,10.5041398 C62.4947917,10.7033333 62.6572917,10.8494086 62.846875,10.8494086 L67.6,10.8494086 C69.2927083,10.8494086 70.7145833,9.93311828 70.7145833,8.19349462 C70.7145833,6.53354839 69.2927083,5.57741935 67.6,5.57741935 L67.6,5.57741935 Z M104.595833,14.2224194 C104.595833,20.3443011 100.804167,24.6601613 92.8010417,24.6601613 C84.7302083,24.6601613 80.9385417,20.3044624 80.9385417,14.2489785 L80.9791667,0.411666667 C80.9791667,0.212473118 81.1416667,0.0531182796 81.3447917,0.0531182796 L87.18125,0.0531182796 C87.384375,0.0531182796 87.546875,0.212473118 87.546875,0.411666667 L87.50625,14.0365054 C87.50625,16.9580108 89.2666667,19.0561828 92.8010417,19.0561828 C96.2541667,19.0561828 98.0552083,16.9580108 98.0552083,14.0365054 L98.0822917,0.411666667 C98.0822917,0.212473118 98.2447917,0.0531182796 98.4479167,0.0531182796 L104.257292,0.0531182796 C104.460417,0.0531182796 104.622917,0.212473118 104.622917,0.411666667 L104.595833,14.2224194 L104.595833,14.2224194 Z M118.367708,5.31182796 C116.458333,5.31182796 115.61875,6.02892473 115.61875,7.02489247 C115.61875,10.0526344 129.986458,7.84822581 129.986458,16.6924194 C129.986458,21.4730645 126.208333,24.6468817 119.383333,24.6468817 C114.4,24.6468817 110.879167,23.2392473 108.346875,21.087957 C108.197917,20.9684409 108.184375,20.7559677 108.292708,20.6098925 L111.326042,16.5861828 C111.447917,16.4135484 111.705208,16.4002688 111.867708,16.5330645 C113.695833,18.1266129 116.404167,19.4014516 119.694792,19.4014516 C121.942708,19.4014516 123.310417,18.5781183 123.310417,17.4360753 C123.310417,14.1825806 108.902083,16.7986559 108.902083,7.62247312 C108.902083,3.62532258 112.517708,0.0531182796 119.044792,0.0531182796 C122.985417,0.0531182796 126.425,1.11548387 129.092708,3.14725806 C129.255208,3.26677419 129.282292,3.49252688 129.146875,3.65188172 L126.005208,7.48967742 C125.883333,7.63575269 125.666667,7.66231183 125.504167,7.55607527 C123.432292,6.05548387 120.778125,5.31182796 118.367708,5.31182796 L118.367708,5.31182796 Z"/></g></g></g></g></g></svg>

<svg xmlns="http://www.w3.org/2000/svg" width="130" height="40" viewBox="0 0 130 25"><g fill="#000" fill-rule="evenodd"><path d="M38.254.065c-8.033 0-14.536 6.257-14.536 13.966 0 3.874 1.64 7.368 4.276 9.894.164.157.465.118.574-.078 1.243-2.147 3.415-3.835 6.065-4.646-1.735-1.113-2.868-3.024-2.868-5.17 0-3.443 2.91-6.23 6.489-6.23 3.579 0 6.489 2.787 6.489 6.23 0 2.16-1.134 4.057-2.87 5.17 2.651.824 4.823 2.5 6.066 4.646.11.196.41.235.574.078 2.65-2.526 4.276-6.033 4.276-9.894 0-7.71-6.516-13.966-14.535-13.966z"/><path d="M7.082 5.577v3.838h12.39c.204 0 .38.16.38.372v4.794c0 .2-.162.372-.38.372H7.083v9.707H.38A.375.375 0 010 24.288V.412C0 .212.163.04.38.04h19.39c.204 0 .38.16.38.372v4.794c0 .199-.162.371-.38.371H7.083zM72.3 15.617l4.807 8.499a.368.368 0 01-.325.544h-6.54a.363.363 0 01-.325-.199l-4.103-8.06h-3.305v7.9a.36.36 0 01-.365.36h-5.715a.36.36 0 01-.365-.36V.04h12.553c5.565 0 8.72 3.612 8.72 8.193-.04 4.276-2.708 6.574-5.037 7.384zM67.6 5.577h-4.753a.346.346 0 00-.352.346v4.581c0 .2.162.345.352.345H67.6c1.693 0 3.115-.916 3.115-2.656 0-1.66-1.422-2.616-3.115-2.616zm36.996 8.645c0 6.122-3.792 10.438-11.795 10.438-8.07 0-11.862-4.356-11.862-10.411l.04-13.837c0-.2.163-.359.366-.359h5.836a.36.36 0 01.366.359l-.04 13.625c0 2.921 1.76 5.02 5.294 5.02 3.453 0 5.254-2.099 5.254-5.02L98.082.412c0-.2.163-.359.366-.359h5.81a.36.36 0 01.365.359l-.027 13.81zm13.772-8.91c-1.91 0-2.75.717-2.75 1.713 0 3.028 14.368.823 14.368 9.667 0 4.781-3.778 7.955-10.603 7.955-4.983 0-8.504-1.408-11.036-3.559a.347.347 0 01-.054-.478l3.033-4.024c.122-.172.38-.186.542-.053 1.828 1.594 4.536 2.868 7.827 2.868 2.248 0 3.615-.823 3.615-1.965 0-3.253-14.408-.637-14.408-9.814 0-3.997 3.616-7.569 10.143-7.569 3.94 0 7.38 1.062 10.048 3.094.162.12.19.346.054.505l-3.142 3.838a.381.381 0 01-.5.066c-2.073-1.5-4.727-2.244-7.137-2.244z" fill-rule="nonzero"/></g></svg>
